X:1
T:You Ought to Know Him
T:You Ought to Know Him
T:William Edie Marks
T:H. O. Devah, 1905
T:Public Domain Courtesy of the Cyber Hymnal™
T:Public Domain Courtesy of the Cyber Hymnal™
C:William Edie Marks
Z:Public Domain
Z:Courtesy of the Cyber Hymnal™
%%score 1 ( 2 3 )
L:1/8
Q:1/4=140
M:6/4
K:A
V:1 treble 
V:2 bass 
V:3 bass 
V:1
 [Ec]2 [DB]2 [CA]2 [CE]6 | [CF]2 [CE]2 [A,C]2 [CE]2 [B,D]4 | [DE]2 [DG]2 [CA]2 [DB]4 [DG]2 | %3
w: 1.~I have a friend—|you ought to know Him,|He is a Sav- ior|
w: 2.~I have a friend—|you ought to know Him,|He is a faith- ful|
w: 3.~I have a friend—|you ought to know Him,|Will you not let Him|
 [DF]2 [EG]2 [DF]2 [CE]6 | [Ec]2 [DB]2 [CA]2 [CE]6 | [CA]2 [DB]2 [Ec]2 [=Ge]2 [Fd]4 | %6
w: ten- der and true;|Je- sus, my king—|how I a- dore Him!|
w: shep- herd and guide;|Sor- row He shares,|bur- dens He light- ens,|
w: en- ter your heart?|Peace He will give|you with- out mea- sure,|
 [DF]2 [FA]2 [Fd]2 [Ec]4 [EA]2 | [DG]2 [CA]2 [DB]2 [CA]6 ||"^Refrain" [DB]2 [DB]2 [DB]2 [DB]6 | %9
w: And He should be as|pre- cious to you.||
w: Ev- ’ry good thing by|Him is sup- plied.|I have a friend—|
w: Bless- ing un- told, that|will not de- part.||
 [DG]2 [DF]2 [DG]2 [CA]2 [CE]4 | [Ec]2 [Ec]2 [^Ec]2 [Fc]4 [CA]2 | [^DB]2 [DB]2 [Dc]2 [EB]6 | %12
w: |||
w: you ought to know Him,|Will you re- ceive His|greet- ing to- day?|
w: |||
 [Ec]2 [DB]2 [CA]2 [CE]6 | [CA]2 [DB]2 [Ec]2 [=Ge]2 [Fd]4 | [DF]2 [FA]2 [Fd]2 [Ec]4 [EA]2 | %15
w: |||
w: Wait- ing He stands,|ten- der- ly plead- ing:|“I am the Life, the|
w: |||
 [DG]2 [CA]2 [DB]2 [CA]6 |] %16
w: |
w: Truth, and the Way.”|
w: |
V:2
 [A,,A,]2 [A,,A,]2 [A,,A,]2 [A,,A,]6 | [A,,A,]2 [A,,A,]2 [A,,E,]2 E,2 [E,G,]4 | %2
 [E,G,]2 [E,B,]2 [E,A,]2 [E,G,]4 [E,B,]2 | [E,G,]2 [E,G,]2 [E,G,]2 [A,,A,]6 | %4
 [A,,A,]2 [A,,A,]2 [A,,A,]2 [A,,A,]6 | A,2 A,2 A,2 [D,A,]2 [D,A,]4 | %6
 [D,A,]2 [D,A,]2 [D,A,]2 [A,,A,]4 [C,A,]2 | [E,B,]2 [E,A,]2 [E,G,]2 [A,,A,]6 || %8
 [E,G,]2 [E,G,]2 [E,G,]2 [E,G,]6 | [E,B,]2 [E,B,]2 [E,B,]2 [A,,A,]2 [A,,A,]4 | %10
 A,2 A,2 [G,B,]2 [F,A,]4 [F,A,]2 | [B,,A,]2 [B,,A,]2 [B,,A,]2 [E,G,]6 | %12
 [A,,A,]2 [A,,A,]2 [A,,A,]2 [A,,A,]6 | A,2 A,2 A,2 [D,A,]2 [D,A,]4 | %14
 [D,A,]2 [D,A,]2 [D,A,]2 [A,,A,]4 [C,A,]2 | [E,B,]2 [E,A,]2 [E,G,]2 [A,,A,]6 |] %16
V:3
 x12 | x6 E,2 x4 | x12 | x12 | x12 | A,2 A,2 A,2 x6 | x12 | x12 || x12 | x12 | A,2 A,2 x8 | x12 | %12
 x12 | A,2 A,2 A,2 x6 | x12 | x12 |] %16

